!!!!SEGMENT: Lhe2005-Ave_Domina_mea.krn
!!!id: Lhe2005
!!!AGN: Motet
!!!SCT: Picker (1987)
!!!voices: 4
!!!COM: Jean Lheritier
!!!OTL: Ave Domina mea
**kern	**kern	**kern	**kern
*part4	*part3	*part2	*part1
*staff4	*staff3	*staff2	*staff1
*I"Bassus	*I"Tenor	*I"Altus	*I"Superius
*I'B	*I'T	*I'A	*I'S
*clefF4	*clefGv2	*clefGv2	*clefG2
*k[b-]	*k[b-]	*k[b-]	*k[b-]
*F:	*F:	*F:	*F:
*M2/1	*M2/1	*M2/1	*M2/1
*met(C|)	*met(C|)	*met(C|)	*met(C|)
!!section: Prima pars: Ave Domina mea
!!!OMD: Prima pars: Ave Domina mea
=1	=1	=1	=1
1.G	1.G	1.d	1.g
2G	2G	2d	2g
=2	=2	=2	=2
1G	1B-y	1d	1g
1C	1c	1e	1g
=3	=3	=3	=3
1G	1B-y	1d	1g
1G	1B-y	1d	1g
=4	=4	=4	=4
1D	1A	0d	[0f
[1D	2r	.	.
.	[2A	.	.
=5	=5	=5	=5
2D]	2A]	0r	0f]
2D	2A	.	.
1F	1A	.	.
=6	=6	=6	=6
1G	1B-y	1.d	1r
1D	[1A	.	[1a
.	.	2d	.
=7	=7	=7	=7
1r	1A]	1f	2a]
.	.	.	2a
[1G	1r	[1g	1b-y
=8	=8	=8	=8
1G]	0d	1g]	1b-y
[1D	.	1f	[1a
=9	=9	=9	=9
1D]	0A	1r	1a]
1D	.	[1f	1r
=10	=10	=10	=10
0F	1A	1f]	0cc
.	[1c	1c	.
=11	=11	=11	=11
1r	1c]	[0e-X	[0g
[1C	1r	.	.
=12	=12	=12	=12
1C]	0G	1e-]	1g]
2GG	.	[1d	1b-y
[2G	.	.	.
=13	=13	=13	=13
2G]	2D	1d]	1a
2F	1d	.	.
1E	.	1r	1r
.	2c	.	.
=14	=14	=14	=14
1D	1B-y	1d	0r
1D	[1A	2d	.
.	.	2d	.
=15	=15	=15	=15
2D	1A]	1f	1a
2D	.	.	.
1F	1A	1f	2a
.	.	.	2a
=16	=16	=16	=16
1F	2A	1c	1cc
.	2A	.	.
[1C	1c	2r	1cc
.	.	[2e-i	.
=17	=17	=17	=17
1C]	1c	2e-]	1.g
.	.	2e-i	.
[1E-X	1G	2.e-i	.
.	.	.	[2b-y
.	.	8dL	.
.	.	8cJ	.
=18	=18	=18	=18
1E-]	2r	2B-y	2b-]
.	2G	2c	4a
.	.	.	4g
1D	1A	[1d	1f
=19	=19	=19	=19
1G	1B-y	2d]	1g
.	.	2e	.
1F	1c	1f	[1a
=20	=20	=20	=20
1G	1B-y	2e	2a]
.	.	1d	2g
1E	1G	.	[1g
.	.	2c#i	.
=21	=21	=21	=21
0D	0A	0d	2g]
.	.	.	4f#i
.	.	.	4e
.	.	.	1f#i
=22	=22	=22	=22
2GG	2G	2B-y	[0g
1G	1B-y	1d	.
2G	2B-y	2d	.
=23	=23	=23	=23
1G	1B-y	1d	1g]
2.D	2.A	1d	1r
4E	4G	.	.
=24	=24	=24	=24
2F	2A	2c	1r
1G	1B-y	1e	.
.	.	.	1g
2F	[2A	[2d	.
=25	=25	=25	=25
1E	2A]	2d]	1g
.	2G	2c	.
1D	2.B-y	2d	[1f
.	.	[2B-y	.
.	4c	.	.
=26	=26	=26	=26
0r	2d	2B-]	2f]
.	1e-i	4A	2.g
.	.	4G	.
.	.	1B-y	.
.	.	.	4f
.	[2d	.	4e
.	.	.	4d
=27	=27	=27	=27
1r	2d]	1A	1e
.	2c	.	.
[1G	2d	2B-y	2d
.	[2d	[2g	[2b-y
=28	=28	=28	=28
2G]	2d]	2g]	2b-]
2G	2d	2g	2b-y
1G	1d	1g	1b-y
=29	=29	=29	=29
1D	1d	1f	1a
2r	2r	2r	2r
[2G	[2d	[2g	[2b-y
=30	=30	=30	=30
2G]	2d]	2g]	2b-]
2G	2d	2g	2b-y
2G	2d	2g	2b-y
2G	2d	2g	2b-y
=31	=31	=31	=31
1G	1B-y	2d	1b-y
.	.	2e	.
[1F	[1c	[1f	[1a
=32	=32	=32	=32
1F]	1c]	1f]	1a]
1G	1B-y	1d	1b-y
=33	=33	=33	=33
1G	0d	1.g	0b-y
1B-y	.	.	.
.	.	2f	.
=34	=34	=34	=34
1F	2c	0f	2a
.	2A	.	1cc
[1G	[1B-y	.	.
.	.	.	2b-y
=35	=35	=35	=35
1G]	1B-]	1e	1.b-y
[1F	[1c	[1f	.
.	.	.	4a
.	.	.	4g
=36	=36	=36	=36
1F]	1c]	1f]	1a
1BB-y	[1B-y	[1d	2.b-y
.	.	.	8aL
.	.	.	8gJ
=37	=37	=37	=37
2r	1B-]	0d_	[0f
1BB-y	.	.	.
.	2r	.	.
2BB-y	[2F	.	.
=38	=38	=38	=38
1D	2F]	1d]	0f]
.	2F	.	.
1D	1A	1r	.
=39	=39	=39	=39
2C	1A	0r	0r
1F	.	.	.
.	2G	.	.
2E	[2c	.	.
=40	=40	=40	=40
1D	2c]	1r	1r
.	2B-y	.	.
[1C	2A	[1c	[1e
.	2G	.	.
=41	=41	=41	=41
0C_	1A	2c]	2e]
.	.	2c	2e
.	[1G	1c	1e
=42	=42	=42	=42
1C]	1G]	1e	1g
1r	1r	1d	2f
.	.	.	[2a
=43	=43	=43	=43
1r	2r	2c	4a]
.	.	.	4g
.	1d	2B-y	1g
1D	.	1A	.
.	2d	.	2f#i
=44	=44	=44	=44
2.E	2c	1G	1g
.	2B-y	.	.
4D	.	.	.
2C	2A	[1c	[1a
2BB-y	[2G	.	.
=45	=45	=45	=45
1AA	2G]	1c]	1a]
.	2F	.	.
2GG	2G	2B-y	[1b-y
[2G	[2B-y	[2d	.
=46	=46	=46	=46
2G]	2B-]	2d]	1b-]
2G	2B-y	2d	.
1F	1c	2.f	1a
.	.	4e	.
=47	=47	=47	=47
1.G	[0B-y	0d	1.b-y
2F	.	.	2a
=48	=48	=48	=48
2E	1B-]	0e	1g
2D	.	.	.
1C	1c	.	[1g
=49	=49	=49	=49
0D	0A	0d	2g]
.	.	.	4f#i
.	.	.	4e
.	.	.	1f#i
=50	=50	=50	=50
2GG	2G	2d	2g
1G	1d	1g	1b-y
2G	2d	2g	2b-y
=51	=51	=51	=51
1B-y	1d	1f	1b-y
1F	1c	1f	1a
=52	=52	=52	=52
2r	2r	2r	2r
1F	1c	1f	1a
2F	2c	2f	2a
=53	=53	=53	=53
1B-y	1d	1f	1b-y
1F	1c	1f	1a
=54	=54	=54	=54
1.G	1.B-y	1.d	0r
2F	2A	2d	.
=55	=55	=55	=55
2E	2G	2c	0cc
2D	1F	1B-y	.
1C	.	.	.
.	2E	2A	.
=56	=56	=56	=56
2BB-y	2F	2B-y	1.dd
1BB-y	1B-y	1f	.
2BB-y	2B-y	2f	2dd
=57	=57	=57	=57
2F	2A	2f	2cc
2G	2B-y	2e	1b-y
1F	1c	1f	.
.	.	.	2a
=	=	=	=
*M3/1	*M3/1	*M3/1	*M3/1
*met(3)	*met(3)	*met(3)	*met(3)
0BB-y	0B-y	0d	0b-y
1r	1r	1r	1r
=58	=58	=58	=58
0BB-y	0d	0f	0b-y
1BB-y	1d	1f	1b-y
=59	=59	=59	=59
0F	0c	0f	0a
1F	1c	1f	1a
=60	=60	=60	=60
1BB-y	0d	1f	1b-y
1D	.	0d	1.a
[1E-i	1B-y	.	.
.	.	.	2g
=61	=61	=61	=61
1E-]	1G	1c	0g
0D	0A	0d	.
.	.	.	1f#i
=62	=62	=62	=62
0GG	0G	0d	0g
1r	1r	1r	1r
=63	=63	=63	=63
0G	0B-y	0d	0g
1G	1B-y	1d	1g
=64	=64	=64	=64
0F	0c	0f	0a
1F	1c	1f	1a
=65	=65	=65	=65
1G	1B-y	0d	1b-y
1D	1F	.	1.a
[1E	[1G	1B-y	.
.	.	.	2g
=66	=66	=66	=66
1E]	1G]	1c	0g
0D	0A	0d	.
.	.	.	1f#i
=67	=67	=67	=67
0E-X	0G	0B-y	0g
1E-i	1G	1c	1g
=68	=68	=68	=68
0.D;	0.A;	0.d;	0.f;
=69	=69	=69	=69
00GGl	00Gl	00dl	00gl
==	==	==	==
*-	*-	*-	*-
!!!system-decoration: [*]
!!!RDF**kern: i = editorial accidental
!!!RDF**kern: l = terminal long
!!!ENC: Benjamin Ory
!!!END: 2022/4/11
!!!EED: Benjamin Ory
!!!EEV: 2022/04/11
!!!YEC: Copyright 2022 Benjamin Ory, All Rights Reserved
!!!ONB: Translated from MusicXML on 2022/04/11
